X: 2059
T: City, The
T: Walking into the Devil's Pocket
R: reel
C: Rick Gagne
N: 1992 on tenor banjo
N: second part only half length
M: 4/4
Q: 1/4=175
K: Dm
G,2 | "Dm"A,DDD FEDF | "C"EDCE "Bb"DCA,G, | "Dm"A,DDD FEDF | "Am"EAcA "C"edcA | 
"Dm"A,D~D2 FEDF | "C"EDCE "Bb"DCA,G, | "Dm"A,DDD FEDF | "C"EDCE "Dm"D2 :|
FA |: "Dm"d2de dcAd | "C"c2cd cBA2 | "Bb"ABBc BAGF | "Am"GAAB ABcA :|
"Dm"defd "C"efge | "Bb"afdf "C"efge | "Dm"defd "C"efge | "Bb"afdf "C"eaae | 
"Dm"defd "C"efge | "Bb"afdf "C"efge | "Bb"afge fdec |1 "Dm"dcAc d2Ac :|\
[2 "Dm"dcAF D2 ||
